Gruvbox-Plus-Dark/actions/16/tag-recents.svg

<svg width="16" height="16" version="1.1" viewBox="0 0 16 16" xmlns="http://www.w3.org/2000/svg">
  <defs>
    <style type="text/css">.ColorScheme-Text { color:#ebdbb2; } .ColorScheme-Highlight { color:#458588; }</style>
  </defs>
  <path class="ColorScheme-Text" d="m4 1s-2 0-2 2v5l7 7 7-7-7-7zm4 2c2.216 0 4 1.784 4 4s-1.784 4-4 4-4-1.784-4-4 1.784-4 4-4zm0 1c-1.662 0-3 1.338-3 3s1.338 3 3 3 3-1.338 3-3-1.338-3-3-3zm-0.5178 0.5091h1v2h1v1h-2z" fill="currentColor"/>
</svg>

<svg xmlns="http://www.w3.org/2000/svg" width="16" height="16" viewBox="0 0 16 16">
 <defs>
  <style id="current-color-scheme" type="text/css">
   .ColorScheme-Text { color:#ebdbb2; } .ColorScheme-Highlight { color:#458588; }
  </style>
 </defs>
 <path style="fill:currentColor" class="ColorScheme-Text" d="M 4 1 C 4 1 2 1 2 3 L 2 8 L 9 15 L 16 8 L 9 1 L 4 1 z M 8 3 C 10.216 3 12 4.784 12 7 C 12 9.216 10.216 11 8 11 C 5.784 11 4 9.216 4 7 C 4 4.784 5.784 3 8 3 z M 8 4 C 6.338 4 5 5.338 5 7 C 5 8.662 6.338 10 8 10 C 9.662 10 11 8.662 11 7 C 11 5.338 9.662 4 8 4 z M 7 5 L 8 5 L 8 7 L 9 7 L 9 8 L 7 8 L 7 5 z"/>
</svg>
